public/assets/techs/react-query.svg

<svg width="20" height="20" viewBox="0 0 20 20" fill="none" xmlns="http://www.w3.org/2000/svg">
<path d="M5.77475 11.4062C5.91142 11.3281 6.08725 11.3769 6.16533 11.5169L6.21742 11.6048C6.61783 12.3144 7.0345 12.9882 7.46742 13.6263C7.9785 14.3782 8.55467 15.14 9.196 15.9114C9.24482 15.9694 9.26877 16.0444 9.26267 16.1199C9.25657 16.1955 9.22091 16.2656 9.16342 16.3151L9.10158 16.3704C6.98241 18.2227 5.60875 18.5904 4.97392 17.4804C4.35225 16.3932 4.57683 14.4206 5.64775 11.556C5.67112 11.4927 5.71609 11.4396 5.77475 11.4062ZM14.7917 13.584C14.9447 13.5579 15.0912 13.6557 15.1204 13.8086L15.1367 13.8932C15.6608 16.6308 15.293 18.0013 14.0332 18.0013C12.7995 18.0013 11.2337 16.8327 9.32617 14.4987C9.28332 14.4466 9.26129 14.3805 9.26433 14.3132C9.26433 14.1569 9.3945 14.0299 9.55075 14.0299H9.65167C10.4326 14.0361 11.2135 14.0089 11.9922 13.9486C12.8841 13.8769 13.8183 13.7565 14.7917 13.584ZM15.5175 7.77016C15.5442 7.69821 15.5979 7.63955 15.6673 7.60669C15.7366 7.57384 15.8161 7.5694 15.8887 7.59433L15.9733 7.62367C18.6914 8.54817 19.7266 9.567 19.0722 10.6771C18.4342 11.7643 16.5787 12.5554 13.5026 13.0502C13.4342 13.0599 13.3626 13.0468 13.304 13.011C13.164 12.9297 13.1152 12.7539 13.1998 12.6139L13.2519 12.5261C13.6719 11.8229 14.0494 11.1231 14.3912 10.4232C14.7884 9.59958 15.1659 8.71416 15.5175 7.77016ZM6.4975 6.94983C6.56583 6.94008 6.6375 6.95317 6.69608 6.989C6.83608 7.07033 6.88483 7.24608 6.80025 7.38608L6.74817 7.47392C6.33903 8.15858 5.95892 8.86018 5.60883 9.57683C5.21167 10.4004 4.83408 11.2858 4.4825 12.2298C4.45582 12.3018 4.40207 12.3604 4.33274 12.3933C4.26341 12.4261 4.18398 12.4306 4.11142 12.4057L4.02675 12.3763C1.30867 11.4518 0.273499 10.433 0.927832 9.32292C1.56583 8.23567 3.42133 7.44458 6.4975 6.94983ZM10.8985 3.62958C13.0177 1.77733 14.3913 1.40958 15.0262 2.51958C15.6478 3.60675 15.4232 5.57942 14.3523 8.444C14.329 8.50732 14.284 8.56036 14.2253 8.59375C14.0887 8.67192 13.9128 8.62308 13.8347 8.48308L13.7827 8.39516C13.3822 7.68558 12.9656 7.01175 12.5327 6.37366C12.0216 5.62175 11.4454 4.86 10.8041 4.08858C10.7553 4.03056 10.7313 3.95563 10.7374 3.88005C10.7435 3.80447 10.7792 3.73435 10.8367 3.68491L10.8985 3.62958ZM6.071 1.89458C7.30475 1.89458 8.87375 3.06316 10.7781 5.39708C10.82 5.44864 10.8429 5.51299 10.8432 5.57942C10.8399 5.73892 10.713 5.86591 10.5535 5.86591L10.4558 5.86258C9.67484 5.85908 8.89403 5.88732 8.11533 5.94725C7.22017 6.01891 6.28592 6.13933 5.31258 6.31183C5.23887 6.3244 5.16317 6.30759 5.10172 6.265C5.04026 6.22241 4.99794 6.15743 4.98383 6.084L4.9675 6.00258C4.44333 3.265 4.81117 1.89458 6.071 1.89458ZM8.46358 6.73825H11.5365C11.6294 6.73828 11.7206 6.76264 11.8011 6.8089C11.8817 6.85516 11.9487 6.92171 11.9955 7.00191L13.5352 9.68425C13.5801 9.76431 13.6036 9.85453 13.6036 9.94629C13.6036 10.038 13.5801 10.1283 13.5352 10.2083L11.9955 12.8939C11.9487 12.9741 11.8817 13.0407 11.8012 13.0869C11.7207 13.1332 11.6294 13.1575 11.5366 13.1576H8.46367C8.27483 13.1576 8.09908 13.0567 8.00783 12.8939L6.46492 10.2083C6.42008 10.1283 6.39653 10.038 6.39653 9.94625C6.39653 9.85448 6.42008 9.76424 6.46492 9.68417L8.00792 7.00191C8.099 6.83916 8.27483 6.73825 8.46358 6.73825ZM11.1557 7.39908C11.2485 7.39911 11.3398 7.42347 11.4203 7.46973C11.5008 7.51599 11.5679 7.58254 11.6147 7.66275L12.7735 9.68425C12.8183 9.76431 12.8419 9.85453 12.8419 9.94629C12.8419 10.038 12.8183 10.1283 12.7735 10.2083L11.6147 12.2331C11.5679 12.3133 11.5008 12.3798 11.4203 12.4261C11.3398 12.4724 11.2485 12.4967 11.1557 12.4967H8.8445C8.65567 12.4967 8.47991 12.3958 8.38875 12.2331L7.22667 10.2083C7.18183 10.1283 7.15828 10.038 7.15828 9.94625C7.15828 9.85448 7.18183 9.76424 7.22667 9.68417L8.38875 7.66275C8.47991 7.5 8.65567 7.39908 8.8445 7.39908H11.1557ZM10.7455 8.12175H9.25467C9.06583 8.12175 8.89333 8.21942 8.79883 8.38542L8.05025 9.68425C8.00543 9.76431 7.98189 9.85453 7.98189 9.94629C7.98189 10.038 8.00543 10.1283 8.05025 10.2083L8.79891 11.5104C8.84505 11.5905 8.91145 11.657 8.99146 11.7033C9.07146 11.7496 9.16224 11.774 9.25467 11.7741H10.7455C10.8379 11.774 10.9287 11.7496 11.0088 11.7033C11.0888 11.6571 11.1552 11.5905 11.2013 11.5104L11.9499 10.2083C11.9948 10.1283 12.0183 10.038 12.0183 9.94625C12.0183 9.85448 11.9948 9.76424 11.9499 9.68417L11.2012 8.38542C11.1068 8.21942 10.9343 8.12175 10.7455 8.12175ZM10.3484 8.81183C10.5372 8.81183 10.713 8.91275 10.8041 9.0755L11.1557 9.68425C11.2501 9.847 11.2501 10.0488 11.1557 10.2083L10.8041 10.8203C10.713 10.9831 10.5372 11.084 10.3484 11.084H9.65175C9.55934 11.0839 9.46857 11.0595 9.38859 11.0132C9.3086 10.9669 9.24221 10.9004 9.19608 10.8203L8.84442 10.2083C8.75008 10.0488 8.75008 9.847 8.84442 9.68417L9.19608 9.0755C9.24221 8.99542 9.3086 8.9289 9.38859 8.88261C9.46857 8.83633 9.55934 8.81192 9.65175 8.81183H10.3484ZM10.0001 9.49217C9.92023 9.4924 9.84183 9.51357 9.77271 9.55356C9.70359 9.59355 9.64617 9.65097 9.60617 9.72008C9.52483 9.86008 9.52483 10.0326 9.60617 10.1757C9.64634 10.2445 9.7039 10.3014 9.77304 10.3408C9.84218 10.3803 9.92048 10.4008 10.0001 10.4004C10.0797 10.4008 10.158 10.3803 10.2271 10.3408C10.2963 10.3014 10.3538 10.2445 10.394 10.1757C10.4753 10.0326 10.4753 9.86 10.394 9.72008C10.354 9.65095 10.2966 9.59353 10.2274 9.55354C10.1583 9.51354 10.08 9.49238 10.0001 9.49217ZM15.8171 6.45833C16.1426 4.87958 16.2142 3.67183 16.0026 2.793C15.8789 2.26883 15.6511 1.84566 15.3027 1.5365C14.9349 1.21091 14.4694 1.0515 13.9486 1.0515C13.0859 1.0515 12.181 1.44533 11.2142 2.19075C10.8203 2.4935 10.4102 2.86133 9.987 3.28775C9.95117 3.24542 9.91533 3.20317 9.87308 3.16733C8.66858 2.09633 7.65625 1.43233 6.79033 1.17517C6.27608 1.02217 5.79425 1.00908 5.35483 1.15558C4.88933 1.31183 4.51817 1.63408 4.25783 2.08658C3.82817 2.832 3.71417 3.81508 3.87367 5.02608C3.93883 5.51758 4.05275 6.05466 4.209 6.63733C4.14816 6.64447 4.08818 6.65759 4.02992 6.6765C2.50667 7.18417 1.42583 7.7245 0.771499 8.34625C0.384082 8.71408 0.130249 9.1275 0.0358324 9.58C-0.0585843 10.0617 0.0358324 10.5435 0.296249 10.996C0.725916 11.7414 1.51692 12.3274 2.64325 12.7929C3.09575 12.9784 3.60675 13.1477 4.17967 13.3007C4.15288 13.3611 4.13322 13.4245 4.12108 13.4895C3.79558 15.065 3.724 16.276 3.93558 17.1516C4.05925 17.6757 4.29033 18.1022 4.63542 18.4081C5.00325 18.7337 5.46875 18.8931 5.98958 18.8931C6.85225 18.8931 7.75708 18.4992 8.724 17.7571C9.12108 17.4478 9.5345 17.0767 9.96417 16.6437C10.0103 16.7132 10.065 16.7767 10.1269 16.8326C11.3314 17.9036 12.3437 18.5676 13.2097 18.8247C13.724 18.9777 14.2057 18.9908 14.6452 18.8443C15.1107 18.6881 15.4818 18.3658 15.7422 17.9133C16.1719 17.1679 16.2858 16.1848 16.1263 14.9739C16.058 14.4628 15.9407 13.9062 15.7715 13.2974C15.8388 13.291 15.9053 13.278 15.9701 13.2584C17.4934 12.7506 18.5742 12.2102 19.2285 11.5884C19.6159 11.2207 19.8698 10.8072 19.9642 10.3547C20.0586 9.873 19.9642 9.39116 19.7037 8.93875C19.2741 8.19325 18.4831 7.60733 17.3567 7.14183C16.8912 6.94983 16.3607 6.774 15.7682 6.621C15.7909 6.56886 15.8073 6.51432 15.8171 6.45833Z" fill="#EEEEEE"/>
</svg>

<svg xmlns="http://www.w3.org/2000/svg" width="20" height="20" fill="none" xmlns:v="https://vecta.io/nano"><path d="M5.775 11.406c.137-.078.313-.029.391.111l.052.088 1.25 2.022c.511.752 1.087 1.514 1.729 2.285.049.058.073.133.067.209s-.042.146-.099.195l-.062.055c-2.119 1.852-3.493 2.22-4.128 1.11-.622-1.087-.397-3.06.674-5.924.023-.063.068-.116.127-.15zm9.017 2.178c.153-.026.3.072.329.225l.016.085c.524 2.738.156 4.108-1.104 4.108-1.234 0-2.799-1.169-4.707-3.503-.043-.052-.065-.118-.062-.185 0-.156.13-.283.286-.283h.101l2.341-.081c.892-.072 1.826-.192 2.8-.365zm.726-5.814c.027-.072.08-.131.15-.163s.149-.037.221-.012l.085.029c2.718.925 3.753 1.943 3.099 3.053-.638 1.087-2.493 1.878-5.57 2.373-.068.01-.14-.003-.199-.039-.14-.081-.189-.257-.104-.397l.052-.088 1.139-2.103 1.126-2.653zm-9.02-.82c.068-.01.14.003.199.039.14.081.189.257.104.397l-.052.088-1.139 2.103-1.126 2.653c-.027.072-.08.131-.15.164s-.149.037-.221.012l-.085-.029C1.309 11.452.274 10.433.928 9.323c.638-1.087 2.493-1.878 5.57-2.373zm4.401-3.32c2.119-1.852 3.493-2.22 4.128-1.11.622 1.087.397 3.06-.674 5.924-.023.063-.068.116-.127.15-.137.078-.312.029-.391-.111l-.052-.088-1.25-2.022-1.729-2.285c-.049-.058-.073-.133-.067-.209s.042-.146.099-.195l.062-.055zM6.071 1.895c1.234 0 2.803 1.169 4.707 3.503a.29.29 0 0 1 .065.182.29.29 0 0 1-.29.286l-.098-.003a28.82 28.82 0 0 0-2.34.085l-2.803.365c-.074.013-.149-.004-.211-.047s-.104-.108-.118-.181l-.016-.081c-.524-2.738-.156-4.108 1.104-4.108zm2.393 4.844h3.073a.53.53 0 0 1 .459.264l1.54 2.682c.045.08.068.17.068.262s-.024.182-.068.262l-1.54 2.686a.53.53 0 0 1-.459.264H8.464c-.189 0-.365-.101-.456-.264l-1.543-2.686c-.045-.08-.068-.17-.068-.262s.024-.182.068-.262l1.543-2.682c.091-.163.267-.264.456-.264zm2.692.661a.53.53 0 0 1 .459.264l1.159 2.022c.045.08.068.17.068.262s-.024.182-.068.262l-1.159 2.025a.53.53 0 0 1-.459.264H8.845c-.189 0-.365-.101-.456-.264l-1.162-2.025c-.045-.08-.068-.17-.068-.262s.024-.182.068-.262l1.162-2.021c.091-.163.267-.264.456-.264h2.311zm-.41.723H9.255a.52.52 0 0 0-.456.264L8.05 9.684c-.045.08-.068.17-.068.262s.024.182.068.262l.749 1.302c.046.08.113.147.193.193s.171.071.263.071h1.491c.092 0 .183-.025.263-.071s.146-.113.192-.193l.749-1.302c.045-.08.068-.17.068-.262s-.024-.182-.068-.262l-.749-1.299a.52.52 0 0 0-.456-.264zm-.397.69c.189 0 .365.101.456.264l.352.609a.52.52 0 0 1 0 .524l-.352.612c-.091.163-.267.264-.456.264h-.697c-.092 0-.183-.024-.263-.071s-.146-.113-.193-.193l-.352-.612a.52.52 0 0 1 0-.524l.352-.609c.046-.08.113-.147.193-.193s.171-.071.263-.071h.697zm-.348.68c-.08 0-.158.021-.227.061s-.127.097-.167.167c-.081.14-.081.313 0 .456.04.069.098.126.167.165s.147.06.227.06.158-.02.227-.06.127-.096.167-.165c.081-.143.081-.316 0-.456-.04-.069-.097-.127-.167-.167s-.147-.061-.227-.061zm5.817-3.034c.326-1.579.397-2.786.186-3.665-.124-.524-.352-.947-.7-1.257-.368-.326-.833-.485-1.354-.485-.863 0-1.768.394-2.734 1.139-.394.303-.804.671-1.227 1.097-.036-.042-.072-.085-.114-.12C8.669 2.096 7.656 1.432 6.79 1.175c-.514-.153-.996-.166-1.435-.02-.466.156-.837.478-1.097.931-.43.745-.544 1.729-.384 2.94a12.77 12.77 0 0 0 .335 1.611.93.93 0 0 0-.179.039c-1.523.508-2.604 1.048-3.258 1.67-.387.368-.641.781-.736 1.234-.094.482 0 .963.26 1.416.43.745 1.221 1.331 2.347 1.797.452.186.963.355 1.536.508a.85.85 0 0 0-.059.189c-.325 1.576-.397 2.787-.185 3.662.124.524.355.951.7 1.257.368.326.833.485 1.354.485.863 0 1.768-.394 2.734-1.136.397-.309.81-.68 1.24-1.113a1 1 0 0 0 .163.189c1.205 1.071 2.217 1.735 3.083 1.992.514.153.996.166 1.436.02.465-.156.837-.479 1.097-.931.43-.745.544-1.729.384-2.939a12.44 12.44 0 0 0-.355-1.677c.067-.006.134-.019.199-.039 1.523-.508 2.604-1.048 3.258-1.67.387-.368.641-.781.736-1.234.094-.482 0-.964-.26-1.416-.43-.745-1.221-1.331-2.347-1.797-.465-.192-.996-.368-1.588-.521a.72.72 0 0 0 .049-.163z" fill="#ff4154"/></svg>
